!!!COM: Hugo Wolf
!!!CNT: Deutscher
!!!TXO: Deutsche 
!!!OTL: Blumengruss
!!!OPR: Gedichte von J.W. v. Goethe
!!!ONM: No. 24
!!!ODT: 1888/
!!!LYR: Goethe
!!!ENC: Brian Bice
!!!YOR: 65 Songs for voice and piano, International Music Company, 1960
!!NB: Vocal melody and text only encoded.
**kern	**silbe
*clefG2	*
*k[b-]	*
*M4/4	*
=1	=1
2r	.
8r	.
{8cc	{Der
4cc	Strauss,
=2	=2
8r	.
8cc	den
8cc	ich
8cc	gep-
4cc	-flu2-
4bn}	-cket,}
=3	=3
4r	.
{[4b-	{gru2
8b-]	|
8dd	-sse
8dd	dich
8dd	viel
=4	=4
4.dd	tau-
8ee	-send-
2ee}	-mal!}
=5	=5
8r	.
{8cc	{Ich
[4cc	ha-
8cc]	|
4cc	-be
[8cc	mich
=6	=6
8cc]	|
4cc	oft
8cc	ge-
8.cc	-bu2-
16f	|
4f}	-cket}
=7	=7
4r	.
{[4ff	{ach,
8ff]	|
4ee-	wohl
8cc	ein-
=8	=8
4.b-	-tau-
8a-	-send-
2e-}	-mal}
=9	=9
4r	.
{[4ee-	{und
8ee-]	|
4ee-	ihn
8ee-	ans
=10	=10
4.ee-	Herz
8ee-	ge-
8.ee-	-dru2-
16ff	|
4ff}	-cket}
=11	=11
4r	.
{4ff	{wie
4cc	hun-
4dd	-dert-
=12	=12
4cc	-tau-
4b-	-send-
2a}	-mal!}
=13	=13
4r	.
{4dd	{Wie
4g	hun-
4b-	-dert-
=14	=14
(2a	-tau-
4.g)	|
8f	-send-
=15	=15
2f}	-mal!}
2r	.
*-	*-
